img/icons/svg/contracts__icon-4.svg

<svg width="26" height="34" fill="none" xmlns="http://www.w3.org/2000/svg">
  <path d="M17.625 10.2553C16.4188 10.2553 15.4375 9.24896 15.4375 8.01196V0.640869H4.25C2.35456 0.640869 0.8125 2.22232 0.8125 4.16617V29.9329C0.8125 31.8768 2.35456 33.4583 4.25 33.4583H21.75C23.6454 33.4583 25.1875 31.8768 25.1875 29.9329V10.2553H17.625ZM5.9375 23.7156H10.4825C11.0002 23.7156 11.42 24.1461 11.42 24.677C11.42 25.208 11.0002 25.6385 10.4825 25.6385H5.9375C5.41975 25.6385 5 25.208 5 24.677C5 24.1461 5.41975 23.7156 5.9375 23.7156ZM5 19.5493C5 19.0183 5.41975 18.5879 5.9375 18.5879H19.6875C20.2052 18.5879 20.625 19.0183 20.625 19.5493C20.625 20.0803 20.2052 20.5108 19.6875 20.5108H5.9375C5.41975 20.5108 5 20.0803 5 19.5493ZM19.6875 13.4602C20.2052 13.4602 20.625 13.8906 20.625 14.4216C20.625 14.9526 20.2052 15.3831 19.6875 15.3831H5.9375C5.41975 15.3831 5 14.9526 5 14.4216C5 13.8906 5.41975 13.4602 5.9375 13.4602H19.6875Z" fill="#304BAB"/>
  <path d="M17.3125 8.01141C17.3125 8.18813 17.4527 8.33189 17.625 8.33189H24.7696C24.5981 8.00718 24.3775 7.70894 24.1124 7.45172L18.086 1.60471C17.8521 1.37781 17.5916 1.18854 17.3126 1.03906V8.01141H17.3125Z" fill="#304BAB"/>
</svg>

<svg width="26" height="34" fill="none" xmlns="http://www.w3.org/2000/svg"><path d="M17.625 10.255c-1.206 0-2.188-1.006-2.188-2.243V.641H4.25C2.355.64.812 2.222.812 4.166v25.767c0 1.944 1.543 3.525 3.438 3.525h17.5c1.895 0 3.438-1.581 3.438-3.525V10.255h-7.563zM5.937 23.715h4.545a.95.95 0 01.938.962.95.95 0 01-.938.962H5.939A.95.95 0 015 24.677c0-.53.42-.961.938-.961zM5 19.55a.95.95 0 01.938-.961h13.75a.95.95 0 01.937.961.95.95 0 01-.938.962H5.938A.95.95 0 015 19.549zm14.688-6.089a.95.95 0 01.937.962.95.95 0 01-.938.961H5.938A.95.95 0 015 14.422a.95.95 0 01.938-.962h13.75z" fill="#304BAB"/><path d="M17.313 8.011c0 .177.14.32.312.32h7.145a3.508 3.508 0 00-.658-.88l-6.026-5.846a3.45 3.45 0 00-.773-.566v6.972z" fill="#304BAB"/></svg>
